X:152
T:Kilashandra Lasses
S:Sean Gavin
L:1/8
R:Jig
M:6/8
K:D
G3 BGG | dGG BGG | A3 ABd | edB AGF |
G3 BGG | dGG B3 | ABc BAB GEE E3 |:
|: def gfe | ded BAG | A3 ABd edB AGE |
def gfe | ded BAG | ABC BAB | GEE E3 :|

%%newpage
%%scale .7
%%staffsep 40

